X: 20021
Q: "Slow."
M: C|
L: 1/8
K: F
c2 |\
K: Bb
|: "Bugle"B2 |\
d2Bd fedc | B2B>B B2F2 | GABc defg | f>ede c2F2 |\
e2cA FF/F/ FF | f2dB FF/F/ FF | BFdB f>edc | B2B>B B2 |][K:=e]
K:F
c2c>d f2fg/a/ | d2d>f g2ga/b/ | a2f>d g2e>c | d>BG>d c2AG |\
b2c>c c2ef/g/ | f2A>A A2Bc/d/ | c2AB/c/ B2GA/B/ | A2FG/A/ G2FA |\
c2Ac f2cf | a2fa c'2b2 | (3(agf) (3(edc) (3(Bcd) (3(GAB) | A2F>F F2 :|


